!! 00000] TT[WS
!!!OTL: Cai cha
!!!ARE: Asia, China, Shanxi Qinyuan
!! Ethnic Group: Han
!! WII, 40
!!!SCT: J0453
!!!YEM: Copyright 1995, estate of Helmut Schaffrath.
**kern
*ICvox
*Ivox
*M2/4
*k[f#c#g#]
*A:
{8a
4a
8b
=1
8.cc#
16ff#
8ee
8cc#
=2
2b
=3
4ee
8cc#
8b
=4
8cc#
8f#
4a}
=5
{8b
4cc#
8ee
=6
8b
8cc#
8b
8a
=7
4f#
4e
=8
16f#
8.a
8b
8cc#
=9
2e}
==
!!!AGN: Xiaodiao, Tiange. Laodong, Caicha
!!!ONB: ESAC (Essen Associative Code) Database: CHINA
!!!AMT: simple duple
!!!AIN: vox
!!!EED: Helmut Schaffrath
!!!EEV: 1.0
*-
